app/themes/uggwc_pro/assets/images/icons/newstar.svg

<svg width="24" height="18" viewBox="0 0 24 18" fill="none" xmlns="http://www.w3.org/2000/svg">
<path d="M22.5 0H1.5C0.6735 0 0 0.6735 0 1.5V16.5C0 17.328 0.6735 18 1.5 18H22.5C23.328 18 24 17.328 24 16.5V1.5C24 0.6735 23.328 0 22.5 0ZM9 12C9 12.3465 8.76 12.651 8.4225 12.729C8.3655 12.744 8.307 12.75 8.25 12.75C7.971 12.75 7.7085 12.594 7.5795 12.336L6 9.177V12C6 12.414 5.664 12.75 5.25 12.75C4.836 12.75 4.5 12.414 4.5 12V6C4.5 5.652 4.74 5.349 5.0775 5.2695C5.4135 5.1885 5.7645 5.3535 5.9205 5.664L7.5 8.823V6C7.5 5.586 7.836 5.25 8.25 5.25C8.664 5.25 9 5.586 9 6V12ZM12.75 8.25C13.164 8.25 13.5 8.586 13.5 9C13.5 9.414 13.164 9.75 12.75 9.75H12V11.25H12.75C13.164 11.25 13.5 11.586 13.5 12C13.5 12.414 13.164 12.75 12.75 12.75H11.25C10.836 12.75 10.5 12.414 10.5 12V6C10.5 5.586 10.836 5.25 11.25 5.25H12.75C13.164 5.25 13.5 5.586 13.5 6C13.5 6.414 13.164 6.75 12.75 6.75H12V8.25H12.75ZM19.5 12C19.5 12.3465 19.2615 12.651 18.9225 12.729C18.864 12.744 18.807 12.75 18.75 12.75C18.4695 12.75 18.2085 12.594 18.0795 12.336L17.25 10.677L16.4205 12.3345C16.2645 12.645 15.921 12.813 15.576 12.729C15.2385 12.651 15 12.3465 15 12V6C15 5.586 15.336 5.25 15.75 5.25C16.164 5.25 16.5 5.586 16.5 6V8.823L16.5795 8.6655C16.8345 8.157 17.667 8.157 17.922 8.6655L18 8.823V6C18 5.586 18.336 5.25 18.75 5.25C19.164 5.25 19.5 5.586 19.5 6V12Z" fill="#F95E69"/>
</svg>

<svg width="24" height="18" fill="none" xmlns="http://www.w3.org/2000/svg"><path d="M22.5 0h-21C.673 0 0 .673 0 1.5v15c0 .828.673 1.5 1.5 1.5h21a1.5 1.5 0 0 0 1.5-1.5v-15c0-.827-.672-1.5-1.5-1.5zM9 12a.75.75 0 0 1-1.42.336L6 9.177V12a.75.75 0 0 1-1.5 0V6a.751.751 0 0 1 1.42-.336L7.5 8.823V6A.75.75 0 0 1 9 6v6zm3.75-3.75a.75.75 0 0 1 0 1.5H12v1.5h.75a.75.75 0 0 1 0 1.5h-1.5a.75.75 0 0 1-.75-.75V6a.75.75 0 0 1 .75-.75h1.5a.75.75 0 0 1 0 1.5H12v1.5h.75zM19.5 12a.748.748 0 0 1-.75.75.748.748 0 0 1-.67-.414l-.83-1.659-.83 1.658a.744.744 0 0 1-.844.394A.748.748 0 0 1 15 12V6a.75.75 0 0 1 1.5 0v2.823l.08-.158c.255-.508 1.087-.508 1.342 0l.078.158V6a.75.75 0 0 1 1.5 0v6z" fill="#F95E69"/></svg>
